X:591
T:The blarney pilgrim
R:Jig
O:Ireland
B:O'Neill's 1099
S:O'Neill's 1099
Z:Transcription, chords:Mike Long
M:6/8
L:1/8
K:G
"G"DED DEG|"D"A2G ABc|"C"BAG AGE|GEA GED|\
"G"DED DEG|"D"A2G ABc|"C"BAG AGE|GED D2z:|
|:"G"ded dBG|"D"AGA BGE|"G"ded dBG|"D"ABA "G"G3|\
"G"~g2e dBG|"D"AGA BGE|"C"B2G AGE|GAG G2z:|
|:"D"A2D B2D|ADD ABc|"G"BAG AGE|"C"GEA GED|\
"D"A2D B2D|A2D ABc|"G"BAG AGE|"C"GED D2z:|
